**harm	**harte	**timestamp	**phrase	**leadinstrument	**kern
*M4/4	*M4/4	*	*	*	*
*F:	*F:	*	*	*	*F:
1r;	N	0	.	r	1r;
=1	=1	=1	=1	=1	=1
*>A_intro	*>A_intro	*>A_intro	*>A_intro	*>A_intro	*>A_intro
1r	N	0.325	newline	r	1r
=2	=2	=2	=2	=2	=2
*>B_instrumental	*>B_instrumental	*>B_instrumental	*>B_instrumental	*>B_instrumental	*>B_instrumental
1I	F:maj	13.089	newline	guitar	1F 1a 1cc
=3	=3	=3	=3	=3	=3
1iii	A:min	15.628	.	guitar	1A 1cc 1ee
=4	=4	=4	=4	=4	=4
1IV	B-:maj	18.168	.	guitar	1B- 1dd 1ff
=5	=5	=5	=5	=5	=5
1IVe	B-:maj/2	20.707	.	guitar	1B- 1dd 1ff
=6	=6	=6	=6	=6	=6
*>C_verse	*>C_verse	*>C_verse	*>C_verse	*>C_verse	*>C_verse
1I	F:maj	23.247	newline	voice	1F 1a 1cc
=7	=7	=7	=7	=7	=7
1Vf	C:maj/4	25.768	.	voice	1C 1e 1g
=8	=8	=8	=8	=8	=8
1IV	B-:maj	28.29	.	voice	1B- 1dd 1ff
=9	=9	=9	=9	=9	=9
2ii	G:min	30.811	.	voice	2G 2b- 2dd
2IVe	B-:maj/2	32.072	.	voice	2B- 2dd 2ff
=10	=10	=10	=10	=10	=10
*>D_bridge	*>D_bridge	*>D_bridge	*>D_bridge	*>D_bridge	*>D_bridge
1vi	D:min	33.332	newline	voice	1D 1f 1a
=11	=11	=11	=11	=11	=11
1iii	A:min	35.833	.	voice	1A 1cc 1ee
=12	=12	=12	=12	=12	=12
1IV	B-:maj	38.333	.	voice	1B- 1dd 1ff
=13	=13	=13	=13	=13	=13
1IVe	B-:maj/2	40.833	.	voice	1B- 1dd 1ff
=14	=14	=14	=14	=14	=14
*>B_chorus	*>B_chorus	*>B_chorus	*>B_chorus	*>B_chorus	*>B_chorus
1I	F:maj	43.333	newline	voice	1F 1a 1cc
=15	=15	=15	=15	=15	=15
1iii	A:min	45.855	.	voice	1A 1cc 1ee
=16	=16	=16	=16	=16	=16
1IV	B-:maj	48.376	.	voice	1B- 1dd 1ff
=17	=17	=17	=17	=17	=17
1IVe	B-:maj/2	50.898	.	voice	1B- 1dd 1ff
=18	=18	=18	=18	=18	=18
1I	F:maj	53.419	newline	voice	1F 1a 1cc
=19	=19	=19	=19	=19	=19
1iii	A:min	55.954	.	voice	1A 1cc 1ee
=20	=20	=20	=20	=20	=20
2IV	B-:maj	58.489	.	voice	2B- 2dd 2ff
2iv	B-:min	59.756	.	voice	2B- 2dd- 2ff
=21	=21	=21	=21	=21	=21
2I	F:maj	61.024	.	voice	2F 2a 2cc
2IVe	B-:maj/2	62.291	.	voice	2B- 2dd 2ff
=22	=22	=22	=22	=22	=22
*>C_verse	*>C_verse	*>C_verse	*>C_verse	*>C_verse	*>C_verse
1I	F:maj	63.559	newline	voice	1F 1a 1cc
=23	=23	=23	=23	=23	=23
1Vf	C:maj/4	66.099	.	voice	1C 1e 1g
=24	=24	=24	=24	=24	=24
1IV	B-:maj	68.639	.	voice	1B- 1dd 1ff
=25	=25	=25	=25	=25	=25
2ii	G:min	71.179	.	voice	2G 2b- 2dd
2IVe	B-:maj/2	72.45	.	voice	2B- 2dd 2ff
=26	=26	=26	=26	=26	=26
1I	F:maj	73.72	newline	voice	1F 1a 1cc
=27	=27	=27	=27	=27	=27
1Vf	C:maj/4	76.235	.	voice	1C 1e 1g
=28	=28	=28	=28	=28	=28
1IV	B-:maj	78.75	.	voice	1B- 1dd 1ff
=29	=29	=29	=29	=29	=29
2ii	G:min	81.266	.	voice	2G 2b- 2dd
2IVe	B-:maj/2	82.523	.	voice	2B- 2dd 2ff
=30	=30	=30	=30	=30	=30
*>D_bridge	*>D_bridge	*>D_bridge	*>D_bridge	*>D_bridge	*>D_bridge
1vi	D:min	83.781	newline	voice	1D 1f 1a
=31	=31	=31	=31	=31	=31
1iii	A:min	86.265	.	voice	1A 1cc 1ee
=32	=32	=32	=32	=32	=32
1IV	B-:maj	88.75	.	voice	1B- 1dd 1ff
=33	=33	=33	=33	=33	=33
1V7	C:7	91.234	.	voice	1C 1e 1g 1b-
=34	=34	=34	=34	=34	=34
*>B_chorus	*>B_chorus	*>B_chorus	*>B_chorus	*>B_chorus	*>B_chorus
1I	F:maj	93.718	newline	voice	1F 1a 1cc
=35	=35	=35	=35	=35	=35
1iii	A:min	96.236	.	voice	1A 1cc 1ee
=36	=36	=36	=36	=36	=36
1IV	B-:maj	98.753	.	voice	1B- 1dd 1ff
=37	=37	=37	=37	=37	=37
1IVe	B-:maj/2	101.27	.	voice	1B- 1dd 1ff
=38	=38	=38	=38	=38	=38
1I	F:maj	103.788	newline	voice	1F 1a 1cc
=39	=39	=39	=39	=39	=39
1iii	A:min	106.301	.	voice	1A 1cc 1ee
=40	=40	=40	=40	=40	=40
2IV	B-:maj	108.814	.	voice	2B- 2dd 2ff
2iv	B-:min	110.071	.	voice	2B- 2dd- 2ff
=41	=41	=41	=41	=41	=41
2I	F:maj	111.328	.	voice	2F 2a 2cc
2VI	D:maj	112.584	.	voice	2D 2f# 2a
=42	=42	=42	=42	=42	=42
*>C2_verse	*>C2_verse	*>C2_verse	*>C2_verse	*>C2_verse	*>C2_verse
1II	G:maj	113.841	newline	voice	1G 1b 1dd
=43	=43	=43	=43	=43	=43
1VIf	D:maj/4	116.338	.	voice	1D 1f# 1a
=44	=44	=44	=44	=44	=44
1V	C:maj	118.835	.	voice	1C 1e 1g
=45	=45	=45	=45	=45	=45
2iii	A:min	121.332	.	voice	2A 2cc 2ee
2Ve	C:maj/2	122.581	.	voice	2C 2e 2g
=46	=46	=46	=46	=46	=46
*>D2_bridge	*>D2_bridge	*>D2_bridge	*>D2_bridge	*>D2_bridge	*>D2_bridge
1vii	E:min	123.83	newline	voice	1E 1g 1b
=47	=47	=47	=47	=47	=47
1#iv	B:min	126.337	.	voice	1B 1dd 1ff#
=48	=48	=48	=48	=48	=48
1V	C:maj	128.844	.	voice	1C 1e 1g
=49	=49	=49	=49	=49	=49
1VI7	D:7	131.351	.	voice	1D 1f# 1a 1cc
=50	=50	=50	=50	=50	=50
1Ve	C:maj/2	133.858	.	voice	1C 1e 1g
=51	=51	=51	=51	=51	=51
*>B2_chorus	*>B2_chorus	*>B2_chorus	*>B2_chorus	*>B2_chorus	*>B2_chorus
1II	G:maj	136.365	newline	voice	1G 1b 1dd
=52	=52	=52	=52	=52	=52
1#iv	B:min	138.879	.	voice	1B 1dd 1ff#
=53	=53	=53	=53	=53	=53
1V	C:maj	141.393	.	voice	1C 1e 1g
=54	=54	=54	=54	=54	=54
1Ve	C:maj/2	143.907	.	voice	1C 1e 1g
=55	=55	=55	=55	=55	=55
1II	G:maj	146.421	newline	voice	1G 1b 1dd
=56	=56	=56	=56	=56	=56
1#iv	B:min	148.944	.	voice	1B 1dd 1ff#
=57	=57	=57	=57	=57	=57
2V	C:maj	151.467	.	voice	2C 2e 2g
2v	C:min	152.728	.	voice	2C 2e- 2g
=58	=58	=58	=58	=58	=58
2II	G:maj	153.989	.	voice	2G 2b 2dd
2Ve	C:maj/2	155.251	.	voice	2C 2e 2g
=59	=59	=59	=59	=59	=59
*>B2_outro	*>B2_outro	*>B2_outro	*>B2_outro	*>B2_outro	*>B2_outro
1II	G:maj	156.512	newline	voice	1G 1b 1dd
=60	=60	=60	=60	=60	=60
1#iv	B:min	159.024	.	voice	1B 1dd 1ff#
=61	=61	=61	=61	=61	=61
1V	C:maj	161.536	.	voice	1C 1e 1g
=62	=62	=62	=62	=62	=62
1Ve	C:maj/2	164.049	.	voice	1C 1e 1g
=63	=63	=63	=63	=63	=63
1II	G:maj	166.561	newline	voice	1G 1b 1dd
=64	=64	=64	=64	=64	=64
1#iv	B:min	169.063	.	voice	1B 1dd 1ff#
=65	=65	=65	=65	=65	=65
1V	C:maj	171.565	.	voice	1C 1e 1g
=66	=66	=66	=66	=66	=66
1Ve	C:maj/2	174.068	.	voice	1C 1e 1g
=67	=67	=67	=67	=67	=67
*>_fadeout	*>_fadeout	*>_fadeout	*>_fadeout	*>_fadeout	*>_fadeout
1II	G:maj	176.57	newline	voice	1G 1b 1dd
=68	=68	=68	=68	=68	=68
1#iv	B:min	179.127	.	voice	1B 1dd 1ff#
=69	=69	=69	=69	=69	=69
1V	C:maj	181.684	.	voice	1C 1e 1g
=70	=70	=70	=70	=70	=70
1Ve	C:maj/2	184.242	.	voice	1C 1e 1g
1r;	N	186.799	.	r	1r;
1r;	N	190.276	.	r	1r;
*-	*-	*-	*-	*-	*-
!!!OTL: Lonely Eyes
!!!COC: Robert John
!!!BillboardChartDate: 1980/02/09
!!!BillboardPeak: 41
!!!BillboardWeeksOnChart: 11
!!!SampleTargetRank: 62
!!!SampleActualRank: 63
!!!SampleID#: 0154
!!!RDF**harmony: **recip + pitch class of root + harmonic quality
!!!RDF**harte: Chris Harte's syntax, used by MIREX
!!!RDF**phrase: newline = linebreak in original McGill transcription
!!!RDF**timestamp: McGill audio timestamp in seconds
!!!RDF**leadinstrument: original McGill primary instrumentation annotation
!!!RDT: 2017/01/12/
!!!ENC: Nathaniel Condit-Schultz
!!!EST: Awating manual error checking and editing.
